X:1
T:08 - Nova angeletta
T:Luca Marenzio (1556 - 1599) 1º Libro di Madrigali a quattro voci (Venetia, 1592)
T:Francesco Petrarca
T:08 - Nova angeletta
T:© 2018 Ed. Marcos Mato
T:© 2018 Ed. Marcos Mato
T:© 2018 Ed. Marcos Mato
T:© 2018 Ed. Marcos Mato
T:© 2018 Ed. Marcos Mato
T:© 2018 Ed. Marcos Mato
C:Luca Marenzio (1556 - 1599)
C:1º Libro di Madrigali a quattro voci (Venetia, 1592)
Z:Francesco Petrarca
Z:© 2018 Ed. Marcos Mato
%%score [ 1 2 3 4 ]
L:1/8
M:4/4
K:C
V:1 treble nm="Soprano" snm="Sop."
V:2 alto2 nm="Alto" snm="A."
V:3 alto transpose=-12 nm="Tenor" snm="T."
V:4 tenor nm="Basso" snm="Bajo"
V:1
 d4 | [Eg]2 |[M:4/2] d8 B3 c d4 | G2 c4 B2 e4 d4 | z2 c4 B2 A2 G2 A4 | d4 B4 e2 e2 d4 | %6
w: ||No- va\_an- ge- let-|ta so- vra l'a- le,|so- vra l'a- le\_ac- cor-|ta, nov' an- ge- let-|
 g8 z2 e4 d2 | c4 B4 A2 G2 A4 | G4 z2 d2 e2 f2 g2 f2 | e2 d2 c6 d2 e4 | A4 c4 d2 e2 f4 | %11
w: ta so- vra|l'a- le\_ac- cor- * *|ta sce- se dal cie- lo\_in|su la fres- ca ri-|va, sce- se dal cie-|
 g4 z2 d2 e2 f2 g4- | g2 f2 e6 d2 c2 B2 | A2 B2 c6 BA B4 | c8 e8 | z8 z2 d2 B2 B2 | c4 B4 d4 A4 | %17
w: lo, sce- se dal cie-|* lo\_in su la fres- ca|ri- * * * * *|va, là|on- d'io pas-|sa- va sol per|
 c4 B4 A8 | A4 B8 B4 | c8 c4 c4 | B8 B4 c2 d2 | e4 e2 e2 f4 e4 | z4 z2 e2 f4 e4 | z8 d8 | %24
w: mio des- ti-|no. Poi che|sen- za com-|pagn' e sen- za|scor- ta mi vi- de,|mi vi- de,|te-|
 d4 z2 e2 e2 dc d2 B2 | c2 d2 e2 f2 e4 e4 | z8 c8 | c4 c4 B4 B4 | c2 B2 A2 G2 F8 | %29
w: se, un lac- * * * cio|che di se- ta\_or- di- va|te-|se fra l'her- ba,\_on-|d'è ver- de'l ca- mi-|
 E4 e4 e3 d c2 B2 | A2 G2 A4 G4 E4- | E4 e4 z4 d4 | e12 d4 | ^c4 d6 cB c4 | d4 z2 d2 f3 f e2 e2 | %35
w: no, on- d'è ver- de'l ca-|mi- * * no. All'|_ hor, all'|hor fui|pre- * * * *|so; et non mi spiac- que|
 d4 d4 z4 c4- | c4 A8 B4 | c8 B8 | z16 | z4 d4 g4 g4 | c4 e4 d4 d2 d2 | d2 c2 B2 d2 c2 B2 A2 G2 | %42
w: po- i, si|_ dol- ce|lu- me||us- cia de|gl'oc- chi suo- i, us-|cia de gl'oc- chi suo- * * *|
 A4 A2 A2 B2 A2 G2 B2 | A2 G2 G6"^#" ^FE F4 | G16 |] %45
w: * i, us- cia de gl'oc- chi|suo- * * * * *|i.|
V:2
 G4 | [A,c]2 |[M:4/2] z8 G8 | E3 F G4 C2 c4 B2 | A4 G4 ^F2 G4 F2 | G4 z4 G8 | E3 F G4 C2 c4 B2 | %7
w: ||No-|va\_an- ge- let- ta so- vra|l'a- le\_ac- cor- * *|ta, nov'|an- ge- let- ta so- vra|
 A4 G4 ^F2 G4 F2 | G8 z8 | z4 G4 A2 B2 c4- | c2 B2 A2 G2 F4 A4 | c4 B4 z8 | G4 A2 B2 c2 B2 A2 G2 | %13
w: l'a- le\_ac- cor- * *|ta|sce- se dal cie-|* lo\_in su la fres- ca|ri- va,|sce- se dal ciel' in su la|
 F6 E2 D8 | C8 G8 | z8 z4 z2 D2 | E2 F2 G2 E2 D8 | z2 G2 G3 F E8 | ^F4 G8 G4 | G8 A4 A4 | %20
w: fres- * ca|ri- va,|l'ond'|io pas- sa- va sol|per mio des- ti-|no. Poi che|sen- za com-|
 ^G8 G4 A2 B2 | c8 c4 z2 =G2 | A4 G4 z2 c2 c2 BA | B2 G2 A2 E2 ^F2 G2 A4 | B4 z4 G8 | %25
w: pagn' e sen- za|scor- ta mi|vi- de, un lac- * *|* cio che di se- ta\_or- di-|va te-|
 C4 z2 A2 c2 BA B2 G2 | A2 G2 F2 D2 E2 F2 G4 | A8 z4 G4 | C4 C4 D4 D4 | E2 D2 C2 B,2 A,B,CD EFGE | %30
w: se, un lac- * * * cio|che di se- ta\_or- di- * *|va te-|se fra l'her- ba,\_on-|d'è ver- de'l ca- mi- * * * * * * *|
 ^F2 G4 F2 G8 | z8 G8 | c12 B4 | A16 | A4 z2 A2 A2 d2 B2 c2 | A4 B4 G8 | A6 G2 F4 G4 | %37
w: * * * no.|All'|hor fui|pre-|so; et non mi spiac- que|po- i, si|dol- * * ce|
 E4 ^F4 G4 z2 G2 | G2 =F2 E2 G2 F2 E2 D2 C2 | D8 E6 F2 | G8 z4 A4 | B2 A2 G2 B2 A2 G2 G4- | %42
w: lu- * me us-|cia de gl'oc- chi suo- * * *|* i, _|_ us-|cia de gl'oc- chi suo- * *|
 G2"^#" ^FE F4 G4 D4 | E4 C4 D8 | D16 |] %45
w: * * * * i, de|gl'oc- chi suo-|i.|
V:3
 D4 | [A,A]2 |[M:4/2] z16 | z16 | z8 D8 | B,3 C D4 G,2 C4 B,2 | C4 D4 E3 F G4 | E8 z4 D4 | %8
w: ||||No-|va\_an- ge- let- ta so- vra|l'a- le\_ac- cor- * *|ta sce-|
 E2 F2 G6 F2 E2 D2 | C2 D2 E4 E8 | z8 z4 D4 | E2 F2 G6 F2 E2 D2 | C6 B,2 A,4 A,4 | z16 | %14
w: se dal cie- lo\_in su la|fres- ca ri- va,|sce-|se dal cie- lo\_in su la|fres- ca ri- va,||
 E8 z2 G2 E2 E2 | F4 E4 G8 | z8 z4 F4 | E2 E2 D8 ^C4 | D4 D8 D4 | E8 F4 E4 | E8 E4 E2 G2 | %21
w: là ond' io pas-|sa- va sol|per|mio des- ti- *|no. Poi che|sen- za com-|pagn' e sen- za|
 G8 A4 z2 E2 | F4 E4 z2 A2 A2 GF | G2 E2 F2 G2 A2 G2 ^F4 | G8 z8 | z4 A4 A2 GF G2 E2 | %26
w: scor- ta mi|vi- de, un lac- * *|* cio che di se- ta\_or- di-|va,|un lac- * * * cio|
 F2 G2 A2 F2 G2 F4 E2 | F6 E2 D8 | z16 | G8 C4 C4 | D4 D4 E2 D2 C2 B,2 | A,8 G,8 | z4 C4 G8- | %33
w: che di se- ta\_or- di- * *|va _ _||te- se fra|l'her- ba,\_ond' è ver- de'l ca-|mi- no.|All' hor|
 G4 F4 E8 | D4 z2 F2 F2 A2 G2 G2 | ^F4 G4 E8 | =F4 C8 E4- | E2 D2 C4 D4 z2 D2 | %38
w: _ fui pre-|so; et non mi spiac- que|po- i, si|dol- ce lu-|* * * me us-|
 E2 D2 C2 E2 D2 C2 C4- | C2 B,A, B,4 C8 | z8 D8 | G4 G4 C4 E4 | D4 D2 D2 D2 C2 B,2 D2 | %43
w: cia de gl'oc- chi suo- * *|* * * * i,|us-|cia de gl'oc- chi|suo- i, us- cia de gl'oc- chi|
 C2 B,2 A,2 G,2 A,8 | G,16 |] %45
w: suo- * * * *|i.|
V:4
 G,4 | [C,E]2 |[M:4/2] z16 | z16 | z16 | G,8 E,3 F, G,4 | C,2 C4 B,2 A,4 G,4 | C8 D8 | z8 z4 G,4 | %9
w: |||||No- va\_an- ge- let-|ta so- vra l'a- le\_ac-|cor- ta|sce-|
 A,2 B,2 C6 B,2 A,2 G,2 | F,6 E,2 D,8 | C,4 z4 z8 | z16 | z16 | z8 C4 z2 C2 | A,2 B,2 C2 A,2 G,8 | %16
w: sa dal cie- lo\_in su la|fres- ca ri-|va,|||là ond'|io pas- sa- va sol|
 z8 z4 D4 | C4 G,4 A,8 | D,4 G,8 G,4 | C8 F,4 A,4 | E,8 E,4 A,2 G,2 | C4 C2 C2 F,4 C4 | %22
w: per|mio des- ti-|no. Poi che|sen- za com-|pagn' et sen- za|scor- ta mi vi- de,|
 z4 z2 C2 F,4 C4 | z8 D8 | G,4 z2 C2 C2 B,A, B,2 G,2 | A,2 B,2 C2 D2 E8 | D8 C8 | F,4 F,4 G,4 G,4 | %28
w: mi vi- de,|te-|se, un lac- * * * cio|che di se- ta\_or- di-|va te-|se fra l'her- ba,\_ond'|
 A,2 G,2 F,2 E,2 D,8 | C,8 z8 | z8 C,8 | C12 B,4 | A,8 G,8 | A,16 | z4 D4 D2 D2 E2 C2 | D4 G,4 C8 | %36
w: è ver- de'l ca- mi-|no.|All'|hor fui|pre- *|so;|et non mi spiac- que|po- i, si|
 F,12 E,4 | A,8 G,8 | C4 C4 F,4 A,4 | G,8 C,8- | C,8 z8 | z16 | D,8 G,4 G,4 | C,4 E,4 D,8 | G,16 |] %45
w: dol- ce|lu- me\_us-|cia de gl'oc- chi|suo- i,|_||us- cia de|gl'oc- chi suo-|i.|

